src/icons/gravatar/user3.svg

<svg width="89" height="136" viewBox="0 0 89 136" fill="none" xmlns="http://www.w3.org/2000/svg">
<path d="M44.5929 14.6699C44.9105 11.0704 45.7179 7.53103 46.993 4.14993C47.2801 3.38284 47.73 2.68706 48.3118 2.11048C48.8935 1.5339 49.5933 1.0902 50.363 0.809932C50.9851 0.576371 51.6586 0.514205 52.313 0.629932C53.4683 0.866186 54.5924 1.2353 55.663 1.72993C56.0705 1.89381 56.4127 2.18727 56.6368 2.565C56.8609 2.94274 56.9545 3.38374 56.903 3.81993C56.9199 4.07264 56.8795 4.32591 56.7848 4.5608C56.69 4.79569 56.5434 5.00612 56.3559 5.17635C56.1683 5.34658 55.9447 5.4722 55.7018 5.54382C55.4588 5.61544 55.2029 5.6312 54.953 5.58993C54.533 5.58993 54.123 5.46993 53.713 5.43993C53.4734 5.37996 53.224 5.3702 52.9805 5.41128C52.737 5.45237 52.5046 5.54339 52.2979 5.67865C52.0913 5.8139 51.9149 5.99045 51.7798 6.19719C51.6447 6.40392 51.5539 6.63638 51.513 6.87993C51.1356 8.03805 50.9202 9.2428 50.873 10.4599C50.803 11.8099 50.743 13.1599 50.663 14.5099C50.583 15.8599 50.013 16.5099 48.603 16.6399C48.053 16.6999 47.503 16.6999 46.953 16.7999C45.373 17.0799 44.5529 16.3599 44.5929 14.6699Z" fill="#4C820D"/>
<path d="M13.853 28.36C13.193 28.36 12.533 28.36 11.853 28.36C11.5415 28.3541 11.2321 28.307 10.933 28.22C10.163 27.99 10.003 27.57 10.423 26.9C10.9795 26.0231 11.6753 25.2428 12.483 24.59C15.0975 22.5163 17.8958 20.6853 20.843 19.12C24.9942 16.8608 29.4604 15.2361 34.093 14.3C36.8964 13.782 39.7616 13.6877 42.593 14.02C44.3575 14.1521 46.1036 14.4671 47.803 14.96C48.1023 15.0596 48.421 15.087 48.733 15.04C48.8178 15.0188 48.9076 15.0322 48.9826 15.0772C49.0577 15.1222 49.1117 15.1951 49.133 15.28C49.148 15.367 49.1322 15.4565 49.0885 15.5331C49.0447 15.6097 48.9755 15.6687 48.893 15.7C48.833 15.7 48.783 15.78 48.713 15.81C44.403 17.88 40.333 20.43 35.963 22.39C31.6461 24.4504 27.1291 26.0622 22.483 27.2C19.6611 27.9202 16.7649 28.3095 13.853 28.36Z" fill="#4C820D"/>
<path d="M68.603 132.88C66.8811 133.428 65.1279 133.872 63.353 134.21C58.4528 135.312 53.4333 135.793 48.413 135.64C39.2866 135.537 30.2116 134.256 21.413 131.83C18.2957 130.974 15.3279 129.645 12.613 127.89C10.8634 126.809 9.33606 125.404 8.11301 123.75C6.47676 121.503 5.02215 119.128 3.76301 116.65C2.29555 113.526 1.39163 110.168 1.09299 106.73C0.204129 99.5968 1.02332 92.3545 3.48301 85.6C4.73093 82.3852 6.49028 79.3933 8.693 76.74C10.1985 75.0524 11.9279 73.5787 13.833 72.36C15.3222 71.3364 16.7512 70.2279 18.113 69.04C19.1813 68.046 20.0977 66.9004 20.833 65.64C22.5265 62.6339 23.8687 59.4429 24.833 56.13C26.833 49.72 28.683 43.23 30.833 36.84C31.9592 33.1523 33.4324 29.5796 35.233 26.17C36.9626 22.9436 39.3186 20.0946 42.163 17.79C42.8004 17.3041 43.4684 16.8599 44.163 16.46C45.4295 15.6601 46.8681 15.1731 48.3601 15.0393C49.852 14.9054 51.3544 15.1284 52.743 15.69C49.9887 17.9593 47.7086 20.7491 46.033 23.9C44.2209 27.3067 42.7408 30.8798 41.613 34.57C39.463 40.96 37.613 47.45 35.613 53.87C34.6466 57.179 33.3046 60.3664 31.613 63.37C30.8713 64.626 29.9555 65.7707 28.893 66.77C27.5284 67.9587 26.096 69.0672 24.603 70.09C22.7081 71.3066 20.986 72.7732 19.483 74.45C17.2829 77.1051 15.5238 80.0966 14.273 83.31C11.8012 90.065 10.9717 97.3111 11.853 104.45C12.1352 107.889 13.0328 111.249 14.503 114.37C15.7673 116.846 17.2217 119.219 18.853 121.47C20.0761 123.124 21.6034 124.529 23.353 125.61C26.0724 127.363 29.0432 128.692 32.163 129.55C40.9602 131.983 50.036 133.264 59.163 133.36C62.3178 133.509 65.4796 133.348 68.603 132.88Z" fill="#A3AA0E"/>
<path d="M88.0029 101.7C87.673 108.036 86.0569 114.239 83.2529 119.93C80.815 125.11 76.6551 129.284 71.483 131.74C70.5421 132.183 69.5734 132.563 68.583 132.88C65.473 133.348 62.3248 133.513 59.183 133.37C50.056 133.274 40.9802 131.993 32.183 129.56C29.0632 128.702 26.0924 127.373 23.373 125.62C21.6233 124.539 20.096 123.134 18.873 121.48C17.2416 119.229 15.7873 116.855 14.523 114.38C13.0528 111.259 12.1552 107.899 11.873 104.46C10.9933 97.3243 11.8228 90.0818 14.293 83.3299C15.5357 80.1108 17.288 77.1125 19.483 74.4499C20.9907 72.7646 22.7198 71.2912 24.623 70.0699C26.1159 69.0471 27.5483 67.9386 28.9129 66.7499C29.9755 65.7506 30.8912 64.6059 31.6329 63.3499C33.3245 60.3463 34.6666 57.1589 35.6329 53.8499C37.6329 47.4299 39.4829 40.9399 41.6329 34.5499C42.7607 30.8597 44.2408 27.2866 46.053 23.8799C47.7285 20.729 50.0086 17.9392 52.763 15.6699C53.5115 15.9717 54.2284 16.3468 54.903 16.7899C58.9825 19.3535 62.0629 23.2348 63.6329 27.7899C65.1943 32.1778 66.3786 36.6908 67.173 41.2799C67.903 45.3399 68.3629 49.4599 69.263 53.4999C69.6699 55.9792 70.5528 58.3562 71.863 60.4999C72.7646 61.7808 73.7466 63.0033 74.803 64.1599C76.173 65.6799 77.573 67.1599 78.803 68.7999C81.905 72.9605 84.2414 77.6402 85.703 82.6199C87.6259 88.7866 88.4054 95.2529 88.0029 101.7Z" fill="#C5D72D"/>
<path d="M77.793 80.8099C77.7951 81.0881 77.871 81.3607 78.013 81.5999C79.2385 84.4816 79.998 87.5397 80.263 90.6599C80.6697 93.9364 80.6865 97.2495 80.313 100.53C80.163 101.75 78.913 104.95 79.603 105.89C81.183 108.05 82.603 103.53 82.723 102.46C83.7444 95.9562 83.2934 89.3061 81.4031 82.9999C81.1302 82.066 80.765 81.1615 80.313 80.2999C80.1999 80.0242 79.9974 79.7945 79.7381 79.6476C79.4788 79.5007 79.1777 79.4452 78.883 79.4899C78.5714 79.5386 78.2884 79.6998 78.0875 79.9431C77.8867 80.1863 77.7819 80.4947 77.793 80.8099Z" fill="white"/>
<path d="M64.3329 53.5699C64.1329 52.3399 63.9529 50.8299 63.6529 49.3299C62.9729 45.9299 62.1829 42.5499 61.1729 39.2299C61.0926 38.8557 60.9507 38.4975 60.7529 38.1699C60.5848 37.9258 60.3405 37.7443 60.0582 37.6538C59.7759 37.5633 59.4716 37.569 59.1929 37.6699C58.9303 37.7695 58.7078 37.9527 58.5597 38.1913C58.4115 38.4298 58.3459 38.7104 58.3729 38.9899C58.4285 39.3675 58.5189 39.739 58.6429 40.0999C60.0016 44.5126 61.0048 49.0271 61.6429 53.5999C61.6723 53.8052 61.7124 54.0088 61.7629 54.2099C61.8169 54.5402 61.9926 54.8383 62.2554 55.0456C62.5182 55.2529 62.8491 55.3543 63.1829 55.3299C63.8729 55.2399 64.3129 54.6899 64.3329 53.5699Z" fill="white"/>
<path d="M18.1629 25.27C18.0064 25.2938 17.8464 25.2631 17.7099 25.183C17.5733 25.1029 17.4685 24.9782 17.4129 24.83C17.3474 24.6848 17.3366 24.5207 17.3825 24.3682C17.4285 24.2156 17.5281 24.0849 17.6629 24C17.8595 23.8576 18.0749 23.7431 18.3029 23.66C24.8811 20.8597 31.6196 18.4522 38.4829 16.45L39.3929 16.21C39.4893 16.1736 39.592 16.1569 39.695 16.161C39.7979 16.165 39.8991 16.1897 39.9923 16.2335C40.0856 16.2774 40.169 16.3395 40.2379 16.4161C40.3067 16.4928 40.3594 16.5826 40.3929 16.68C40.5429 17.06 40.3229 17.41 39.8129 17.63C39.6864 17.6805 39.5559 17.7206 39.4229 17.75C32.5531 19.7381 25.8106 22.1426 19.2329 24.95C18.8962 25.1146 18.5347 25.2227 18.1629 25.27Z" fill="white"/>
<path d="M54.2529 20.0001C53.9097 19.9605 53.5648 20.0581 53.2933 20.2716C53.0217 20.4851 52.8455 20.7973 52.8029 21.1401C52.766 21.4911 52.8507 21.8441 53.0429 22.1401C54.5183 24.7623 55.6732 27.5523 56.4829 30.4501C56.553 30.7186 56.6398 30.9824 56.7429 31.2401C56.8437 31.5729 57.0725 31.8521 57.3792 32.0162C57.6858 32.1803 58.045 32.2159 58.3779 32.1151C58.7107 32.0143 58.9899 31.7854 59.154 31.4788C59.3181 31.1722 59.3537 30.8129 59.2529 30.4801C59.0429 29.6701 58.7629 28.8801 58.5229 28.0901C57.8509 25.934 56.9874 23.8424 55.9429 21.8401C55.7159 21.41 55.4655 20.9927 55.1929 20.5901C55.0856 20.432 54.9466 20.298 54.7848 20.1964C54.623 20.0949 54.4419 20.028 54.2529 20.0001Z" fill="white"/>
<path d="M62.9631 111.97C62.9631 112.251 62.8798 112.525 62.7237 112.759C62.5677 112.992 62.3459 113.174 62.0865 113.282C61.827 113.389 61.5415 113.418 61.266 113.363C60.9905 113.308 60.7375 113.173 60.539 112.974C60.3404 112.776 60.2051 112.523 60.1503 112.247C60.0955 111.972 60.1236 111.686 60.2311 111.427C60.3386 111.167 60.5206 110.945 60.7541 110.789C60.9876 110.633 61.2622 110.55 61.543 110.55C61.9188 110.553 62.2785 110.703 62.5442 110.969C62.81 111.235 62.9604 111.594 62.9631 111.97Z" fill="white"/>
<path d="M53.893 32.88C53.891 33.1608 53.8058 33.4348 53.6481 33.6672C53.4904 33.8996 53.2673 34.08 53.0071 34.1857C52.7469 34.2913 52.4612 34.3174 52.1861 34.2607C51.9111 34.2039 51.659 34.0669 51.4619 33.8669C51.2647 33.667 51.1312 33.413 51.0783 33.1372C51.0255 32.8613 51.0556 32.576 51.1649 32.3173C51.2742 32.0586 51.4578 31.8381 51.6924 31.6838C51.927 31.5294 52.2021 31.448 52.483 31.45C52.6694 31.4513 52.8538 31.4893 53.0256 31.5619C53.1974 31.6345 53.3532 31.7402 53.4841 31.873C53.615 32.0057 53.7186 32.163 53.7887 32.3358C53.8589 32.5086 53.8943 32.6935 53.893 32.88Z" fill="white"/>
<path d="M58.2329 62.4499C58.2088 62.6838 58.0989 62.9004 57.9243 63.0579C57.7498 63.2154 57.523 63.3026 57.2879 63.3026C57.0528 63.3026 56.826 63.2154 56.6515 63.0579C56.4769 62.9004 56.367 62.6838 56.3429 62.4499C56.3293 62.3177 56.3436 62.184 56.3849 62.0576C56.4261 61.9312 56.4935 61.8149 56.5826 61.7162C56.6716 61.6175 56.7804 61.5385 56.9019 61.4845C57.0234 61.4305 57.1549 61.4026 57.2879 61.4026C57.4209 61.4026 57.5524 61.4305 57.6739 61.4845C57.7954 61.5385 57.9041 61.6175 57.9932 61.7162C58.0823 61.8149 58.1497 61.9312 58.1909 62.0576C58.2322 62.184 58.2465 62.3177 58.2329 62.4499Z" fill="white"/>
<path d="M53.983 50.17C53.9849 50.3588 53.9306 50.5438 53.827 50.7016C53.7234 50.8593 53.5751 50.9826 53.4011 51.0558C53.2271 51.1289 53.0353 51.1485 52.8501 51.1122C52.6649 51.0759 52.4947 50.9852 52.3612 50.8517C52.2278 50.7183 52.1371 50.5481 52.1008 50.3629C52.0644 50.1777 52.0841 49.9858 52.1572 49.8118C52.2304 49.6379 52.3537 49.4896 52.5114 49.386C52.6692 49.2823 52.8542 49.2281 53.0429 49.23C53.2923 49.23 53.5313 49.3291 53.7076 49.5054C53.8839 49.6816 53.983 49.9207 53.983 50.17Z" fill="white"/>
<path d="M80.533 113.19C81.0522 113.19 81.473 112.769 81.473 112.25C81.473 111.731 81.0522 111.31 80.533 111.31C80.0139 111.31 79.593 111.731 79.593 112.25C79.593 112.769 80.0139 113.19 80.533 113.19Z" fill="white"/>
<path d="M72.6028 73.2201C73.122 73.2201 73.5428 72.7992 73.5428 72.2801C73.5428 71.7609 73.122 71.3401 72.6028 71.3401C72.0837 71.3401 71.6628 71.7609 71.6628 72.2801C71.6628 72.7992 72.0837 73.2201 72.6028 73.2201Z" fill="white"/>
<path d="M69.2931 125.58C69.2931 125.768 69.2374 125.952 69.133 126.108C69.0286 126.264 68.8802 126.386 68.7066 126.458C68.533 126.53 68.342 126.548 68.1577 126.512C67.9734 126.475 67.8042 126.385 67.6713 126.252C67.5385 126.119 67.448 125.95 67.4113 125.765C67.3747 125.581 67.3935 125.39 67.4654 125.216C67.5373 125.043 67.6591 124.894 67.8153 124.79C67.9715 124.686 68.1552 124.63 68.3431 124.63C68.4682 124.629 68.5923 124.652 68.7082 124.7C68.8241 124.747 68.9293 124.817 69.0178 124.905C69.1063 124.994 69.1762 125.099 69.2235 125.215C69.2708 125.331 69.2944 125.455 69.2931 125.58Z" fill="white"/>
<path d="M24.123 95.6499C22.9772 95.6059 21.8631 95.261 20.893 94.6499C20.4183 94.3522 20.0231 93.9438 19.7412 93.4597C19.4593 92.9755 19.2992 92.4302 19.2746 91.8705C19.25 91.3108 19.3617 90.7535 19.6 90.2465C19.8384 89.7395 20.1963 89.298 20.643 88.9599C20.925 88.7327 21.234 88.5413 21.5629 88.3899C22.8187 87.8167 24.2064 87.5949 25.5782 87.7481C26.95 87.9013 28.2546 88.4238 29.3529 89.2599C29.7285 89.48 30.0492 89.7825 30.291 90.1444C30.5328 90.5063 30.6895 90.9184 30.7492 91.3496C30.8088 91.7807 30.77 92.2198 30.6355 92.6339C30.5011 93.0479 30.2745 93.426 29.9729 93.7399C29.3967 94.5259 28.5606 95.0821 27.613 95.3099C26.4742 95.6028 25.2969 95.7175 24.123 95.6499Z" fill="#FF556E"/>
<path d="M66.4829 94.7199C65.161 94.7596 63.8485 94.4855 62.6529 93.92C61.9914 93.591 61.4594 93.0495 61.1421 92.3823C60.8248 91.7151 60.7406 90.9607 60.9029 90.2399C61.14 89.403 61.6871 88.6878 62.4329 88.2399C63.4382 87.6335 64.5799 87.2896 65.7529 87.2399C66.6895 87.1563 67.6334 87.2136 68.5529 87.4099C69.1658 87.5306 69.7477 87.7745 70.2634 88.1269C70.7791 88.4793 71.2178 88.9328 71.5529 89.46C71.8757 90.0409 71.992 90.7141 71.8831 91.3697C71.7741 92.0253 71.4462 92.6246 70.9529 93.07C70.1266 93.8621 69.0815 94.3881 67.9529 94.5799C67.3529 94.6699 66.8229 94.6899 66.4829 94.7199Z" fill="#FF556E"/>
<path d="M45.6529 99.26C44.5798 99.2361 43.5265 98.9657 42.5745 98.4698C41.6226 97.9739 40.7974 97.2657 40.1629 96.4C38.6247 94.3117 37.7627 91.8026 37.6929 89.21C37.6564 88.9372 37.6745 88.66 37.746 88.3943C37.8175 88.1286 37.941 87.8797 38.1093 87.6621C38.2776 87.4444 38.4875 87.2624 38.7267 87.1264C38.9659 86.9904 39.2297 86.9033 39.5029 86.87C39.6126 86.8601 39.7231 86.8601 39.8329 86.87C40.352 86.8881 40.8473 87.0918 41.229 87.4441C41.6107 87.7964 41.8533 88.274 41.9129 88.79C41.9829 89.13 42.0429 89.47 42.0929 89.79C42.1866 90.3931 42.3135 90.9907 42.4729 91.58C42.7173 92.4555 43.1432 93.2698 43.7229 93.97C43.9516 94.2631 44.2404 94.5039 44.5698 94.6764C44.8992 94.8489 45.2616 94.949 45.6329 94.97C46.3164 94.945 46.9643 94.6586 47.4429 94.17C48.5799 93.0144 49.2859 91.5035 49.4429 89.89L49.4829 89.45C49.5168 89.1468 49.5702 88.8462 49.6429 88.55C49.7219 88.0503 49.973 87.594 50.3528 87.2598C50.7326 86.9257 51.2172 86.7347 51.7229 86.72H51.9529C52.235 86.751 52.5082 86.8376 52.7567 86.9748C53.0052 87.1119 53.2241 87.297 53.4008 87.5191C53.5774 87.7413 53.7083 87.9963 53.7859 88.2694C53.8635 88.5424 53.8862 88.8281 53.8529 89.11V89.49C53.6689 92.1274 52.6852 94.6461 51.0329 96.71C50.372 97.4966 49.5493 98.1315 48.6209 98.5716C47.6925 99.0116 46.6802 99.2464 45.6529 99.26Z" fill="black"/>
<path d="M37.2928 81.8201C37.2482 82.7985 36.9143 83.7417 36.3334 84.5302C35.7526 85.3188 34.9508 85.9173 34.0297 86.2501C33.1085 86.5828 32.1093 86.6349 31.1586 86.3995C30.2079 86.1642 29.3484 85.6521 28.6888 84.9281C28.0292 84.2041 27.5992 83.3007 27.4532 82.3322C27.3073 81.3638 27.4519 80.3738 27.8688 79.4875C28.2857 78.6013 28.9561 77.8586 29.7952 77.3535C30.6344 76.8484 31.6045 76.6036 32.5828 76.6501C33.2318 76.6796 33.8685 76.8368 34.4567 77.1128C35.0448 77.3887 35.5727 77.7779 36.0102 78.2581C36.4477 78.7384 36.7862 79.3002 37.0063 79.9114C37.2264 80.5226 37.3237 81.1712 37.2928 81.8201Z" fill="black"/>
<path d="M32.813 80.0901C32.787 80.457 32.6534 80.8082 32.4289 81.0996C32.2043 81.3909 31.8988 81.6096 31.5506 81.7283C31.2024 81.8469 30.8269 81.8601 30.4712 81.7664C30.1155 81.6727 29.7953 81.4762 29.5508 81.2014C29.3062 80.9266 29.1481 80.5857 29.0963 80.2216C29.0445 79.8574 29.1012 79.486 29.2594 79.1539C29.4176 78.8218 29.6703 78.5437 29.9857 78.3545C30.3012 78.1653 30.6655 78.0733 31.033 78.0901C31.2827 78.1001 31.5278 78.1603 31.7537 78.2672C31.9796 78.3741 32.1816 78.5253 32.3478 78.712C32.5139 78.8987 32.6407 79.1169 32.7207 79.3537C32.8006 79.5905 32.832 79.8409 32.813 80.0901Z" fill="#F7F7F7"/>
<path d="M33.243 84.1701C33.2308 84.4351 33.1402 84.6905 32.9826 84.904C32.8251 85.1175 32.6077 85.2794 32.358 85.3692C32.1084 85.459 31.8377 85.4727 31.5803 85.4085C31.3228 85.3443 31.0902 85.2051 30.912 85.0086C30.7337 84.8121 30.6178 84.5671 30.5789 84.3047C30.54 84.0422 30.58 83.7741 30.6936 83.5344C30.8072 83.2946 30.9895 83.094 31.2173 82.9579C31.445 82.8219 31.708 82.7565 31.973 82.7701C32.3258 82.7907 32.6565 82.9489 32.8939 83.2107C33.1314 83.4725 33.2567 83.8169 33.243 84.1701Z" fill="#F7F7F7"/>
<path d="M64.0331 81.87C63.9885 82.846 63.6556 83.7869 63.0763 84.5737C62.4971 85.3605 61.6975 85.9578 60.7788 86.2902C59.86 86.6226 58.8633 86.675 57.9147 86.441C56.9662 86.2069 56.1083 85.6968 55.4496 84.9752C54.7909 84.2536 54.361 83.3529 54.2143 82.3869C54.0675 81.421 54.2104 80.4332 54.625 79.5485C55.0396 78.6638 55.7073 77.9219 56.5435 77.4167C57.3798 76.9114 58.347 76.6655 59.3231 76.71C59.9711 76.7395 60.6071 76.8964 61.1945 77.1717C61.7819 77.447 62.3094 77.8353 62.7468 78.3144C63.1841 78.7936 63.5229 79.3542 63.7436 79.9643C63.9643 80.5743 64.0626 81.2219 64.0331 81.87Z" fill="black"/>
<path d="M59.553 80.1501C59.5251 80.5145 59.3905 80.8626 59.166 81.1509C58.9415 81.4392 58.637 81.655 58.2906 81.7714C57.9442 81.8877 57.5712 81.8995 57.2181 81.8051C56.8651 81.7108 56.5477 81.5145 56.3055 81.2409C56.0633 80.9672 55.9071 80.6283 55.8564 80.2664C55.8057 79.9045 55.8626 79.5357 56.0202 79.206C56.1778 78.8763 56.4291 78.6004 56.7426 78.4126C57.056 78.2248 57.4179 78.1335 57.7829 78.1501C58.0318 78.1614 58.2758 78.2226 58.5006 78.3301C58.7253 78.4375 58.9261 78.589 59.0912 78.7755C59.2563 78.962 59.3822 79.1798 59.4616 79.416C59.5409 79.6521 59.572 79.9018 59.553 80.1501Z" fill="#F7F7F7"/>
<path d="M59.983 84.2199C59.9727 84.4855 59.8837 84.742 59.7273 84.9568C59.5708 85.1717 59.3541 85.3352 59.1045 85.4265C58.8549 85.5178 58.5838 85.5329 58.3257 85.4698C58.0675 85.4067 57.834 85.2682 57.6547 85.072C57.4755 84.8758 57.3586 84.6307 57.3189 84.3679C57.2793 84.1051 57.3187 83.8365 57.4322 83.5962C57.5456 83.3558 57.728 83.1546 57.956 83.0182C58.1841 82.8818 58.4476 82.8162 58.713 82.8299C59.0649 82.848 59.3955 83.0041 59.6332 83.2643C59.8709 83.5244 59.9966 83.8678 59.983 84.2199Z" fill="#F7F7F7"/>
</svg>

<svg fill="none" xmlns="http://www.w3.org/2000/svg" viewBox="0 0 89 136"><path d="M44.593 14.67a39.702 39.702 0 012.4-10.52 5.669 5.669 0 013.37-3.34 3.71 3.71 0 011.95-.18c1.155.236 2.28.605 3.35 1.1a2 2 0 011.24 2.09 1.681 1.681 0 01-1.95 1.77c-.42 0-.83-.12-1.24-.15a1.79 1.79 0 00-2.2 1.44 13.206 13.206 0 00-.64 3.58c-.07 1.35-.13 2.7-.21 4.05-.08 1.35-.65 2-2.06 2.13-.55.06-1.1.06-1.65.16-1.58.28-2.4-.44-2.36-2.13z" fill="#4C820D"/><path d="M13.853 28.36h-2a3.534 3.534 0 01-.92-.14c-.77-.23-.93-.65-.51-1.32a9.549 9.549 0 012.06-2.31 54.872 54.872 0 018.36-5.47 47.329 47.329 0 0113.25-4.82 28.498 28.498 0 018.5-.28c1.764.132 3.51.447 5.21.94.3.1.618.127.93.08a.33.33 0 01.4.24.38.38 0 01-.24.42c-.06 0-.11.08-.18.11-4.31 2.07-8.38 4.62-12.75 6.58a69.89 69.89 0 01-13.48 4.81 37.53 37.53 0 01-8.63 1.16z" fill="#4C820D"/><path d="M68.603 132.88a45.183 45.183 0 01-5.25 1.33 59.791 59.791 0 01-14.94 1.43 106.082 106.082 0 01-27-3.81 31.646 31.646 0 01-8.8-3.94 16.161 16.161 0 01-4.5-4.14 52.342 52.342 0 01-4.35-7.1 29.294 29.294 0 01-2.67-9.92 45.36 45.36 0 012.39-21.13 32 32 0 015.21-8.86 24.79 24.79 0 015.14-4.38 47.08 47.08 0 004.28-3.32 14.899 14.899 0 002.72-3.4 44.997 44.997 0 004-9.51c2-6.41 3.85-12.9 6-19.29a61.005 61.005 0 014.4-10.67 27.52 27.52 0 016.93-8.38c.637-.486 1.305-.93 2-1.33a9.438 9.438 0 018.58-.77 27.162 27.162 0 00-6.71 8.21 60.165 60.165 0 00-4.42 10.67c-2.15 6.39-4 12.88-6 19.3a45.156 45.156 0 01-4 9.5 15.458 15.458 0 01-2.72 3.4 46.796 46.796 0 01-4.29 3.32 25.052 25.052 0 00-5.12 4.36 32.182 32.182 0 00-5.21 8.86 45.35 45.35 0 00-2.42 21.14 28.806 28.806 0 002.65 9.92 53.767 53.767 0 004.35 7.1 16.162 16.162 0 004.5 4.14 31.848 31.848 0 008.81 3.94 105.452 105.452 0 0027 3.81 48.321 48.321 0 009.44-.48z" fill="#A3AA0E"/><path d="M88.003 101.7a46.748 46.748 0 01-4.75 18.23 24.734 24.734 0 01-11.77 11.81c-.94.443-1.91.823-2.9 1.14-3.11.468-6.258.633-9.4.49a105.452 105.452 0 01-27-3.81 31.848 31.848 0 01-8.81-3.94 16.16 16.16 0 01-4.5-4.14 53.821 53.821 0 01-4.35-7.1 28.806 28.806 0 01-2.65-9.92 45.35 45.35 0 012.42-21.13 32.178 32.178 0 015.19-8.88 25.047 25.047 0 015.14-4.38 46.808 46.808 0 004.29-3.32c1.063-1 1.978-2.144 2.72-3.4a45.151 45.151 0 004-9.5c2-6.42 3.85-12.91 6-19.3a60.158 60.158 0 014.42-10.67 27.159 27.159 0 016.71-8.21c.748.302 1.465.677 2.14 1.12a21.12 21.12 0 018.73 11 81.916 81.916 0 013.54 13.49c.73 4.06 1.19 8.18 2.09 12.22a19.469 19.469 0 002.6 7 37.042 37.042 0 002.94 3.66c1.37 1.52 2.77 3 4 4.64a43.721 43.721 0 016.9 13.82 53.001 53.001 0 012.3 19.08z" fill="#C5D72D"/><path d="M77.793 80.81c.002.278.078.55.22.79a29.538 29.538 0 012.25 9.06c.407 3.276.423 6.59.05 9.87-.15 1.22-1.4 4.42-.71 5.36 1.58 2.16 3-2.36 3.12-3.43A44 44 0 0081.403 83a14.668 14.668 0 00-1.09-2.7 1.33 1.33 0 00-1.43-.81 1.29 1.29 0 00-1.09 1.32zm-13.46-27.24c-.2-1.23-.38-2.74-.68-4.24-.68-3.4-1.47-6.78-2.48-10.1a3.452 3.452 0 00-.42-1.06 1.34 1.34 0 00-1.56-.5 1.28 1.28 0 00-.82 1.32c.056.377.146.749.27 1.11a86.5 86.5 0 013 13.5c.03.205.07.409.12.61a1.34 1.34 0 001.42 1.12c.69-.09 1.13-.64 1.15-1.76zm-46.17-28.3a.69.69 0 01-.75-.44.66.66 0 01.25-.83 2.64 2.64 0 01.64-.34 180.776 180.776 0 0120.18-7.21l.91-.24a.769.769 0 011 .47c.15.38-.07.73-.58.95-.127.05-.257.09-.39.12a176.245 176.245 0 00-20.19 7.2 3.419 3.419 0 01-1.07.32zM54.253 20a1.31 1.31 0 00-1.45 1.14 1.54 1.54 0 00.24 1 37.558 37.558 0 013.44 8.31c.07.269.157.532.26.79a1.311 1.311 0 002.51-.76c-.21-.81-.49-1.6-.73-2.39a37.89 37.89 0 00-2.58-6.25 13.29 13.29 0 00-.75-1.25 1.38 1.38 0 00-.94-.59zm8.71 91.97a1.42 1.42 0 11-1.42-1.42 1.43 1.43 0 011.42 1.42zm-9.07-79.09a1.42 1.42 0 11-2.84-.02 1.42 1.42 0 012.84.02zm4.34 29.57a.95.95 0 11-1.89-.195.95.95 0 011.89.195zm-4.25-12.28a.951.951 0 11-.94-.94.94.94 0 01.94.94zm26.55 63.02a.94.94 0 100-1.88.94.94 0 000 1.88zm-7.93-39.97a.94.94 0 100-1.88.94.94 0 000 1.88zm-3.31 52.36a.95.95 0 11-.95-.95.933.933 0 01.675.275.946.946 0 01.275.675z" fill="#fff"/><path d="M24.123 95.65a6.53 6.53 0 01-3.23-1 3.46 3.46 0 01-.25-5.69c.282-.227.591-.419.92-.57a7.63 7.63 0 017.79.87 2.879 2.879 0 01.62 4.48 4.12 4.12 0 01-2.36 1.57 11.384 11.384 0 01-3.49.34zm42.36-.93a8.37 8.37 0 01-3.83-.8 3.3 3.3 0 01-1.75-3.68 3.42 3.42 0 011.53-2 7.002 7.002 0 013.32-1 9.406 9.406 0 012.8.17 4.61 4.61 0 013 2.05 2.94 2.94 0 01-.6 3.61 5.72 5.72 0 01-3 1.51c-.6.09-1.13.11-1.47.14z" fill="#FF556E"/><path d="M45.653 99.26a7.001 7.001 0 01-5.49-2.86 12.7 12.7 0 01-2.47-7.19 2.078 2.078 0 011.81-2.34c.11-.01.22-.01.33 0a2.17 2.17 0 012.08 1.92c.07.34.13.68.18 1 .094.603.22 1.2.38 1.79a6.48 6.48 0 001.25 2.39 2.61 2.61 0 001.91 1 2.67 2.67 0 001.81-.8 7.08 7.08 0 002-4.28l.04-.44c.034-.303.087-.604.16-.9a2.17 2.17 0 012.08-1.83h.23a2.149 2.149 0 011.9 2.39v.38a13 13 0 01-2.82 7.22 7.151 7.151 0 01-5.38 2.55zm-8.36-17.44a4.95 4.95 0 11-4.71-5.17 4.939 4.939 0 014.71 5.17z" fill="#000"/><path d="M32.813 80.09a1.87 1.87 0 11-1.06-1.823 1.861 1.861 0 011.06 1.823zm.43 4.08a1.34 1.34 0 11-1.27-1.4 1.35 1.35 0 011.27 1.4z" fill="#F7F7F7"/><path d="M64.033 81.87a4.94 4.94 0 11-9.87-.45 4.94 4.94 0 019.87.45z" fill="#000"/><path d="M59.553 80.15a1.86 1.86 0 11-3.71-.284 1.86 1.86 0 013.71.284zm.43 4.07a1.34 1.34 0 11-2.678-.104 1.34 1.34 0 012.678.104z" fill="#F7F7F7"/></svg>
